public/bg-meta-top.svg

<svg fill="none" height="1211" viewBox="0 0 1440 1211" width="1440" xmlns="http://www.w3.org/2000/svg"><path d="m-762-17.8369c0 677.1059 558.162 1228.1569 1244 1228.1569 685.84 0 1244-551.051 1244-1228.1569v-1202.5031c0-677.11-558.16-1228.16-1244-1228.16-685.838 0-1244 551.05-1244 1228.16z" fill="#e6edf0" opacity=".2"/><path d="m-594-183.337c0 677.106 558.162 1228.157 1244 1228.157 685.84 0 1244-551.051 1244-1228.157v-1202.503c0-677.11-558.16-1228.16-1244-1228.16-685.838 0-1244 551.05-1244 1228.16z" fill="#1c1f32"/></svg>

<svg width="1440" height="1211" viewBox="0 0 1440 1211" fill="none" xmlns="http://www.w3.org/2000/svg">
<path opacity="0.2" d="M-762 -17.8369C-762 659.269 -203.838 1210.32 482 1210.32C1167.84 1210.32 1726 659.269 1726 -17.8369V-1220.34C1726 -1897.45 1167.84 -2448.5 482 -2448.5C-203.838 -2448.5 -762 -1897.45 -762 -1220.34V-17.8369Z" fill="#E6EDF0"/>
<path d="M-594 -183.337C-594 493.769 -35.838 1044.82 650 1044.82C1335.84 1044.82 1894 493.769 1894 -183.337V-1385.84C1894 -2062.95 1335.84 -2614 650 -2614C-35.838 -2614 -594 -2062.95 -594 -1385.84V-183.337Z" fill="#1C1F32"/>
</svg>
